X:1
T:Title
%%score { ( 1 3 5 ) | ( 2 4 ) }
L:1/8
M:4/4
K:Bb
V:1 treble nm="Grand Piano"
V:3 treble 
V:5 treble 
V:2 bass 
V:4 bass 
V:1
 z4 z2[Q:1/4=96] [B,D][CE] | [DF][DF][DF][DG] DDD[CE] | [DF][DF][DF][DG] [B,D]2 [FB]c | dddd edcB | %4
 cccc c2 [Ge][Ae] | [Bd][Fd][Fd][Ec] [DB][DB][DF][DF] | GcBG [B,DF]2 B>c | d4 z4 | %8
[M:7/8] B-B-B- B- B3 |[M:1/4] [Fd][Ge] |[M:4/4] dccc c2 cd | [Ec][DB][DB][DB] [DB]2 [FB][FA] | %12
 [EG][EG][FG][FG] [=EG][EG][Ec][Ed] | c6 z2 | [Fd][Fd][Fd][Fc] [B,FB]2 [DFB][DFB] | %15
[M:9/8] [Gc][Gc][Gd] [Gd] [Ge]2- [Ge][Gd][Gc] |[M:4/4] BBBF d2 c2 |[M:3/4] [DB]6 |] %18
V:2
 z4 z2 [B,,F,][B,,F,] | [B,,B,][B,,B,][B,,B,][B,,B,] [B,,F,B,][B,,F,B,][B,,F,B,][B,,F,] | %2
 [B,,B,][B,,B,][B,,B,][B,,B,] [B,,F,]2 [D,B,][K:treble][F,A,F] | %3
 [B,F][B,F][B,F][B,F] [B,G][B,F][A,CF][K:bass][G,C=E] | %4
 [F,A,F][F,A,F][G,B,=E][G,B,E] [A,C_E]2 [F,C][F,C] | %5
 [B,,B,][B,,B,][B,,B,][B,,B,] [B,,F,][B,,F,][B,,B,][B,,B,] | %6
 [E,B,E][E,G,E][E,G,E][E,B,E] B,,2[K:treble] D>E | F4[K:bass] z4[K:treble] | %8
[M:7/8] D[K:bass][B,,F,][B,,G,] [B,,G,] [B,,F,]3 |[M:1/4] [B,,B,][B,,B,] | %10
[M:4/4] [F,B,F][F,A,E][F,A,E][F,A,E] [F,A,E]2 [F,A,E][F,F] | %11
 [B,,F,][B,,F,][B,,F,][B,,F,] [B,,F,]2 [D,B,][D,B,] | %12
 [E,B,][E,B,][D,=B,][D,B,] [C,C][C,C][C,G,][C,_B,] | [F,A,F]2 [G,B,]G, [A,C]2 [F,D][F,E] | %14
 [B,,B,][B,,B,][B,,B,][C,A,] D,2 B,,B,, | %15
[M:9/8] [E,E][E,E][D,=B,] [D,B,] [C,C]2- [C,C][D,B,][E,C] | %16
[M:4/4] [F,DF][F,DF][F,DF][F,B,D] [F,B,F]2 [F,A,E]2 |[M:3/4] [B,,F,B,]6 |] %18
V:3
 x8 | x8 | x8 | x8 | x8 | x8 | x8 | z B,B,B c2 d2 |[M:7/8] z DE E D3 |[M:1/4] x2 |[M:4/4] x8 | x8 | %12
 x8 | z2 z B, _E2 Bc | x8 |[M:9/8] x9 |[M:4/4] x8 |[M:3/4] x6 |] %18
V:4
 x8 | x8 | x7[K:treble] x | x7[K:bass] x | x8 | x8 | x6[K:treble] x2 | %7
 z[K:bass] F,F,[F,B,D] [F,A,E]2[K:treble] F2 |[M:7/8] x[K:bass] x6 |[M:1/4] x2 |[M:4/4] x8 | x8 | %12
 x8 | x8 | x8 |[M:9/8] x9 |[M:4/4] x8 |[M:3/4] x6 |] %18
V:5
 x8 | x8 | x8 | x8 | x8 | x8 | x8 | x8 |[M:7/8] x7 |[M:1/4] x2 |[M:4/4] x8 | x8 | x8 | z2 =E2 z4 | %14
 x8 |[M:9/8] x9 |[M:4/4] x8 |[M:3/4] x6 |] %18

